X:1
T:Title
%%score { ( 1 3 4 ) | ( 2 5 ) }
L:1/8
M:4/4
K:G
V:1 treble nm="Grand Piano"
V:3 treble 
V:4 treble 
V:2 treble 
V:5 treble 
V:1
 z4 z2[Q:1/4=90] GB | dBde dB[DB][DA] | [EG][EA][EG][CE] [B,D]2 (3GAB | d6 z2 | A6 z2 | %5
 dBde dB[DB][DA] |[M:3/4] [EG][EA] [EG][G,CE] [G,B,D]2 |[M:1/4] z2 | %8
[M:4/4] z2 (3DD^D E[=DG] (3ABA |[M:3/4] G6 |[M:1/4] (3GAB |[M:4/4] d6 z2 |[M:3/4] d6 | %13
[M:1/4] (3BAG |[M:4/4] G6 z2 |[M:3/4][K:bass] D6 |[M:1/4][K:treble] (3GAB |[M:4/4] d6 z2 | %18
[M:3/4] d6 |[M:1/4] (3DEG |[M:4/4] B6 z2 |[M:7/4] G6 z2 z2 z4 |] %22
V:2
 z4 z2 [G,B,D][G,DG] | [G,B,G][G,DG][G,B,G][G,CG] [G,B,G][K:bass][G,D][G,,G,][B,,G,] | %2
 [C,G,][C,C][C,C][C,G,] [G,,G,]2 z2 | %3
 z2 (3[G,B,][G,B,][G,B,] [G,B,][K:treble][G,DG] (3[G,DG][K:bass][F,D][E,^CE] | %4
 D,D, (3A,,A,,A,, [D,D]2[K:treble] [G,B,D][G,DG] | %5
 [G,B,G][G,DG][G,B,G][G,CG] [G,B,G][K:bass][G,D][G,,G,][B,,G,] |[M:3/4] [C,G,][C,C] [C,C]C, G,,2 | %7
[M:1/4][K:treble] (3DEG |[M:4/4] B6[K:bass] z2 |[M:3/4] z[K:treble] B, (3CCC B,2 |[M:1/4] z2 | %11
[M:4/4] z2 (3[G,B,][G,B,][G,B,] [G,B,][G,B,G] (3[G,CG][G,B,G][G,DG] | %12
[M:3/4] [G,B,G][K:bass][G,B,] (3[D,A,][D,A,][D,A,] [G,B,]2 |[M:1/4] z2 | %14
[M:4/4] z2 (3[C,C][C,C][C,C] [C,C][C,C] (3[C,C][C,C][C,G,] | %15
[M:3/4] [G,,G,][G,,G,] (3[G,,G,][B,,G,][D,G,] G,2 |[M:1/4] z2 | %17
[M:4/4] z2 (3[G,B,][G,B,][G,B,] [G,B,][K:treble][G,B,G] (3[G,CG][G,B,G][G,DG] | %18
[M:3/4] [G,B,G][K:bass][G,B,] (3[D,A,][D,A,][D,A,] [G,B,]2 |[M:1/4] z2 | %20
[M:4/4] z2 (3G,G,[F,A,] [E,G,][B,,G,] (3[D,F,C][D,F,D][D,F,C] | %21
[M:7/4] z[K:treble] B,(3CCC B,2 z2 z2 z4 |] %22
V:3
 x8 | x8 | x8 | z2 (3GGG GB (3BAG | z [DF] (3[^CE][CE][CE] F2 GB | x8 |[M:3/4] x6 |[M:1/4] x2 | %8
[M:4/4] x8 |[M:3/4] z D (3EEE D2 |[M:1/4] x2 |[M:4/4] z2 (3GGG Gd (3edB |[M:3/4] z G (3FFF G2 | %13
[M:1/4] x2 |[M:4/4] z2 (3EEE E[EA] (3[EG][DF][CE] |[M:3/4][K:bass] z B, (3B,B,B, B,2 | %16
[M:1/4][K:treble] x2 |[M:4/4] z2 (3GGG Gd (3edB |[M:3/4] z G (3FFF G2 |[M:1/4] x2 | %20
[M:4/4] z2 (3DD^D E[=DG] (3ABA |[M:7/4] z D(3EEE D2 z2 z2 z4 |] %22
V:4
 x8 | x8 | x8 | x8 | .[DF]2 z2 z4 | x8 |[M:3/4] x6 |[M:1/4] x2 |[M:4/4] x8 | %9
[M:3/4] .[G,B,]2 z2 z2 |[M:1/4] x2 |[M:4/4] x8 |[M:3/4] x6 |[M:1/4] x2 |[M:4/4] x8 | %15
[M:3/4][K:bass] .B,2 z2 z2 |[M:1/4][K:treble] x2 |[M:4/4] x8 |[M:3/4] x6 |[M:1/4] x2 |[M:4/4] x8 | %21
[M:7/4] .[G,B,]2 z2 z2 z2 z2 z4 |] %22
V:5
 x8 | x5[K:bass] x3 | x8 | x5[K:treble] x5/3[K:bass] x4/3 | x6[K:treble] x2 | x5[K:bass] x3 | %6
[M:3/4] x6 |[M:1/4][K:treble] x2 | %8
[M:4/4] z2 (3G,[K:bass]G,[F,A,] [E,G,][B,,G,] (3[D,F,C][D,F,D][D,F,C] |[M:3/4] G,,6[K:treble] | %10
[M:1/4] x2 |[M:4/4] x8 |[M:3/4] x[K:bass] x5 |[M:1/4] x2 |[M:4/4] x8 |[M:3/4] x6 |[M:1/4] x2 | %17
[M:4/4] x5[K:treble] x3 |[M:3/4] x[K:bass] x5 |[M:1/4] x2 |[M:4/4] x8 | %21
[M:7/4] G,,6[K:treble] z2 z2 z4 |] %22

